!!!OTL: WENN I MORGENS FRUEH AUFSTEH
!!!ARE: Europa, Mitteleuropa, Deutschland, Bayern
!!!SCT: Z0258
!!!YEM: Copyright 1995, estate of Helmut Schaffrath.
**kern
*ICvox
*Ivox
*M3/4
*k[b-]
*F:
=1
{8d
8d
8f#
8d
8g
8e
=2
4a
8dd
8f#
4a}
=3
{4e
8a
8g
8f#
8e
=4
4d
8f#
8d
4f#}
=5
{4d
8f#
8d
8f#
8d
=6
4a
8dd
8f#
4a}
=7
{4f#
8a
8g
8f#
8e
=8
4d
4r}
{12a
12g
12f
=9
4e
4r
12b-
12a
12g
=10
4f
4r}
{12a
12g
12f
=11
4g
4r
12b-
12a
12g
=12
4a
4r}
{8cc
8cc
=13
8cc
8ff
4cc
4a
=14
4f
4r}
{8a
8f
=15
8c
8cc
8bn
8cc
8b-
8g
=16
4f
2r}
==
!!!AGN: lyrisches Lied, Romanze
!!  Modulation in T9
!!!ONB: ESAC (Essen Associative Code) Database: ZUCCAL
!!!AMT: simple triple
!!!AIN: vox
!!!EED: Helmut Schaffrath
!!!EEV: 1.0
*-
